assets/Service dog/Flat/service_dog_flat.svg

<svg width="32" height="32" viewBox="0 0 32 32" fill="none" xmlns="http://www.w3.org/2000/svg">
<path d="M24.01 16.6301C24.01 17.7901 24.43 18.9001 25.16 19.8001C25.72 20.4901 26.05 21.3901 26 22.3601C25.91 24.3001 24.35 25.8801 22.41 25.9801C20.59 26.0801 19.02 24.8801 18.55 23.2301H15.48C15.99 26.5201 18.85 29.0301 22.3 28.9901C25.93 28.9401 28.91 26.0001 29 22.3701C29.07 19.5301 27.41 17.0801 24.99 15.9901C24.54 15.7901 24.01 16.1201 24.01 16.6301Z" fill="#A56953"/>
<path d="M26.05 2L23.13 9.87C22.45 11.75 20.64 13.02 18.64 13.02H13.01V14.52H18.64C21.27 14.52 23.64 12.86 24.54 10.39L27.65 2H26.05Z" fill="#00A6ED"/>
<path d="M7.00998 18V23.81C7.00998 23.95 6.98998 24.09 6.95998 24.22L5.20507 29.6734C5.15314 29.8348 5.27351 30 5.44305 30H7.91837C8.02666 30 8.12264 29.9303 8.15612 29.8273L9.80998 24.74C9.93998 24.26 10.01 23.75 10.01 23.25V18H7.00998Z" fill="#D3883E"/>
<path d="M14.01 12.0001L18.28 19.1601L23.8911 22C23.9696 22.4986 24.01 23.0066 24.01 23.5201V25.8601C24.01 28.1501 22.16 30.0001 19.87 30.0001L11.51 30C11.2339 30 11.0036 29.7726 11.0724 29.5052C11.294 28.6424 12.0806 28 13.01 28V26.84C13.01 25.8167 13.4107 24.8866 14.0638 24.1981L12.01 23.0001V23.6201C12.01 24.1201 11.94 24.6301 11.81 25.1101L10.2171 29.6651C10.147 29.8657 9.95765 30.0001 9.74513 30.0001H7.80098C7.45762 30.0001 7.21643 29.6619 7.32823 29.3373L8.96997 24.5701C8.99997 24.4401 9.01997 24.3001 9.01997 24.1601V20.8001C7.84997 20.3601 7.01997 19.2401 7.01997 17.9201L7.00997 14.4001C7.00997 14.1801 6.81997 14.0001 6.59997 14.0001H5.98997C3.77997 14.0001 2.98997 12.2001 2.99997 9.99008V9.72008C2.99997 9.32008 4.09999 9 4.49999 9L5.50997 9.00008C5.82997 9.00008 6.11997 8.84008 6.28997 8.58008L7.09997 7.35008C7.64997 6.51008 8.58997 6.00008 9.59997 6.00008H11.04L11.01 3.60008C11.01 3.15008 11.51 2.86008 11.89 3.10008C13.19 3.93008 14.01 5.41008 14.01 6.98008V12.0001Z" fill="#F3AD61"/>
<path d="M14.5 12.2937V13.7499C14.5 14.1641 14.1642 14.4999 13.75 14.4999H13C12.7239 14.4999 12.5 14.7238 12.5 14.9999V18.9999C12.5 19.276 12.7239 19.4999 13 19.4999H13.75C14.1642 19.4999 14.5 19.8357 14.5 20.2499V20.9999C14.5 21.276 14.7239 21.4999 15 21.4999H23.7985C23.2484 18.8836 21.6313 16.5706 19.28 15.1599L14.5 12.2937Z" fill="#F8312F"/>
<path d="M13 14C12.5182 14 12.1161 14.3407 12.0212 14.7942C12.0138 14.8417 12.01 14.8904 12.01 14.94V16H7V18H12.01V19.06C12.01 19.1096 12.0138 19.1583 12.0212 19.2058C12.1161 19.6593 12.5182 20 13 20H13.75C13.881 20 13.9885 20.1008 13.9991 20.229C14.0062 20.2549 14.01 20.282 14.01 20.31V21.06C14.01 21.1096 14.0138 21.1583 14.0212 21.2058C14.1161 21.6593 14.5182 22 15 22H23.89C23.8373 21.6619 23.7668 21.3282 23.6794 21H20.01V15.65C19.78 15.47 19.53 15.31 19.28 15.16L19.01 15V21H15V20.25C15 19.5596 14.4404 19 13.75 19H13V15H13.75C14.4404 15 15 14.4404 15 13.75V12.5936L14.01 12V13.69C14.01 13.718 14.0062 13.7451 13.9991 13.771C13.9885 13.8992 13.881 14 13.75 14H13Z" fill="#636363"/>
<path d="M15.51 18.1401C16.1396 18.1401 16.65 17.6297 16.65 17.0001C16.65 16.3705 16.1396 15.8601 15.51 15.8601C14.8804 15.8601 14.37 16.3705 14.37 17.0001C14.37 17.6297 14.8804 18.1401 15.51 18.1401Z" fill="#FBB8AB"/>
<path d="M6.00998 10.07C6.00998 9.48 5.52998 9 4.94998 9H2.70998C2.31998 9.01 1.99998 9.32 1.99998 9.72V9.99C1.98998 12.2 3.77998 14 5.98998 14H6.00998V10.07Z" fill="#A56953"/>
<path d="M2.75 10.5H3.25C3.67 10.5 4 10.16 4 9.75C4 9.34 3.67 9 3.25 9H2.75C2.34 9 2 9.34 2 9.75C2 10.16 2.34 10.5 2.75 10.5Z" fill="#212121"/>
<path d="M8.01001 10.28C8.01001 10.56 8.23001 10.78 8.51001 10.78C8.79001 10.78 9.01001 10.56 9.01001 10.29V9.71997C9.01001 9.43997 8.79001 9.21997 8.51001 9.21997C8.23001 9.21997 8.01001 9.43997 8.01001 9.71997V10.28Z" fill="#212121"/>
</svg>

<svg xmlns="http://www.w3.org/2000/svg" width="32" height="32" fill="none"><path fill="#A56953" d="M24.01 16.63c0 1.16.42 2.27 1.15 3.17.56.69.89 1.59.84 2.56-.09 1.94-1.65 3.52-3.59 3.62-1.82.1-3.39-1.1-3.86-2.75h-3.07c.51 3.29 3.37 5.8 6.82 5.76 3.63-.05 6.61-2.99 6.7-6.62a6.796 6.796 0 0 0-4.01-6.38.7.7 0 0 0-.98.64Z"/><path fill="#00A6ED" d="m26.05 2-2.92 7.87a4.796 4.796 0 0 1-4.49 3.15h-5.63v1.5h5.63c2.63 0 5-1.66 5.9-4.13L27.65 2h-1.6Z"/><path fill="#D3883E" d="M7.01 18v5.81c0 .14-.02.28-.05.41l-1.755 5.453a.25.25 0 0 0 .238.327h2.475a.25.25 0 0 0 .238-.173L9.81 24.74c.13-.48.2-.99.2-1.49V18h-3Z"/><path fill="#F3AD61" d="m14.01 12 4.27 7.16L23.891 22c.079.499.119 1.007.119 1.52v2.34c0 2.29-1.85 4.14-4.14 4.14h-8.36c-.276 0-.506-.227-.438-.495A2.008 2.008 0 0 1 13.01 28v-1.16c0-1.023.4-1.953 1.054-2.642L12.01 23v.62c0 .5-.07 1.01-.2 1.49l-1.593 4.555a.5.5 0 0 1-.472.335H7.801a.5.5 0 0 1-.473-.663L8.97 24.57c.03-.13.05-.27.05-.41V20.8c-1.17-.44-2-1.56-2-2.88l-.01-3.52c0-.22-.19-.4-.41-.4h-.61c-2.21 0-3-1.8-2.99-4.01v-.27C3 9.32 4.1 9 4.5 9h1.01c.32 0 .61-.16.78-.42l.81-1.23A2.99 2.99 0 0 1 9.6 6h1.44l-.03-2.4c0-.45.5-.74.88-.5 1.3.83 2.12 2.31 2.12 3.88V12Z"/><path fill="#F8312F" d="M14.5 12.294v1.456a.75.75 0 0 1-.75.75H13a.5.5 0 0 0-.5.5v4a.5.5 0 0 0 .5.5h.75a.75.75 0 0 1 .75.75V21a.5.5 0 0 0 .5.5h8.799a9.732 9.732 0 0 0-4.519-6.34l-4.78-2.866Z"/><path fill="#636363" d="M13 14a1 1 0 0 0-.979.794.947.947 0 0 0-.011.146V16H7v2h5.01v1.06c0 .05.004.098.011.146A1 1 0 0 0 13 20h.75c.131 0 .239.1.25.229.006.026.01.053.01.081v.75c0 .05.004.098.011.146A1 1 0 0 0 15 22h8.89a9.678 9.678 0 0 0-.21-1h-3.67v-5.35c-.23-.18-.48-.34-.73-.49l-.27-.16v6H15v-.75c0-.69-.56-1.25-1.25-1.25H13v-4h.75c.69 0 1.25-.56 1.25-1.25v-1.156L14.01 12v1.69a.306.306 0 0 1-.01.081.25.25 0 0 1-.25.229H13Z"/><path fill="#FBB8AB" d="M15.51 18.14a1.14 1.14 0 1 0 0-2.28 1.14 1.14 0 0 0 0 2.28Z"/><path fill="#A56953" d="M6.01 10.07C6.01 9.48 5.53 9 4.95 9H2.71c-.39.01-.71.32-.71.72v.27A3.993 3.993 0 0 0 5.99 14h.02v-3.93Z"/><path fill="#212121" d="M2.75 10.5h.5a.749.749 0 1 0 0-1.5h-.5c-.41 0-.75.34-.75.75s.34.75.75.75ZM8.01 10.28c0 .28.22.5.5.5s.5-.22.5-.49v-.57c0-.28-.22-.5-.5-.5s-.5.22-.5.5v.56Z"/></svg>
